X:1
T:The Fields Are White
T:Charles Hutchinson Gabriel
T:The Fields Are White
T:Public Domain
T:Public Domain
T:Public Domain
C:Charles Hutchinson Gabriel
Z:Public Domain
%%score ( 1 2 ) ( 3 4 )
L:1/8
M:6/4
K:Bb
V:1 treble 
V:2 treble 
V:3 bass 
V:4 bass 
V:1
 [DF]2 | [DB]2 [DA]2 [Dc]2 [DB]2 [DF]2 [DA]2 | [^CG]6 [DF]4 F2 | %3
w: 1.~The|fields are all white to the|har- vest, And|
w: 2.~The|reap- ers are few for the|la- bor, And|
w: 3.~And|pray ye the Lord of the|har- vest To|
w: 4.~And|this is the prom- ise He|giv- eth: The|
 [EF]2 [EA]2 [EG]2 [EF]2 [Ec]2 [EF]2 | (z2 F2 E2 [DB]4) ([DB][DB]) | %5
w: ing for work- ers to- day;|* * * The *|
w: is the need of the hour;|* * * Go *|
w: forth His reap- ers a- main,|* * * For~the *|
w: er shall wag- es re- ceive,|* * * And *|
 [DB]2 [DG]2 [DB]2 [DA]2 D2 [DA]2 | (G4 A2) [DB]4 [DB]2 | [=Ec]2 [Ed]2 [Ec]2 [EB]2 [EA]2 [EG]2 | %8
w: * gold- en grain now in-|you, * Oh, who|the sum- mons o- bey? *|
w: * in the name of the|ter, * For He|en- due you with power. The|
w: * vest most sure- ly will|ish * Un- less|shall gar- ner the grain. *|
w: * ther his fruit, life e-|nal: * Go forth,|the prom- ise be- lieve! *|
 (F4 D2 [EF]4) ||"^Refrain" =F2 | [Fd]8 [EA]2 [Ec]2 | [DB]8 [DF]2 [DB]2 | [EA]8 [CE]2 [EG]2 | %13
w: |||||
w: har- * *|is|ing, A- wake|from thy sleep-|ing! For few|
w: |||||
w: |||||
 [DF]6 [B,D]4 F2 | G2 ^F2 =G2 A2 ^G2 A2 | B2 [Fc]2 [Fd]2 [Ee]4 [B=e]2 | (B4 B2 A2) [Fe]2 [EA]2 | %17
w: ||||
w: are the work-|And soon comes the night, Go|||
w: ||||
w: ||||
 [Ec]6 [DB]4 |] %18
w: |
w: |
w: |
w: |
V:2
 x2 | x12 | x10 F2 | x12 | [DB-]6 x6 | x8 D2 x2 | D6 x6 | x12 | F6- x4 || =F2 | x12 | x12 | x12 | %13
w: ||call-||rich,|vites|will|||||||
w: ||great||forth|Mas-|will||vest|call-||||
w: ||send||har-|per-|we|||||||
w: ||reap-||ga-|ter-|and|||||||
 x10 F2 | ^G2 ^F2 ^G2 A2 G2 A2 | B2 x10 | f8 x4 | x10 |] %18
w: |||||
w: ers,|forth to the reap- ing. *||||
w: |||||
w: |||||
V:3
 [B,,B,]2 | [B,,F,]2 [B,,F,]2 [B,,F,]2 [B,,F,]2 [B,,B,]2 [B,,B,]2 | =E,4 G,2 [B,,B,]4 [D,B,]2 | %3
w: ~|~ ~ ~ ~ ~ ~|~ ~ ~ ~|
 [C,A,]2 [F,C]2 [F,B,]2 [F,A,]2 [F,A,]2 [F,A,]2 | z2 A,2 G,2 [B,,F,B,]4 [B,,B,][B,,B,] | %5
w: ~ ~ ~ ~ ~ ~|~ ~ ~ ~ ~|
 [G,B,]2 [G,B,]2 [G,B,]2 [^F,C]2 [F,C]2 [F,C]2 | [G,B,]4 [^F,C]2 [G,B,]4 [G,B,]2 | %7
w: * ~ ~ ~ ~ ~|~ ~ ~ ~|
 [C,B,]2 [C,B,]2 [C,B,]2 [C,G,]2 [C,C]2 [C,B,]2 | (A,4 B,2) [F,C]4 || [F,A,]2 | %10
w: ~ ~ ~ ~ ~ ~|The * har-||
 [B,,B,]2 [B,,A,]2 [B,,G,]2 [B,,F,]2 [B,,F,]2 [B,,F,]2 | %11
w: is call- ing, the fields are|
 [B,,B,]2 [B,,A,]2 [B,,G,]2 (F,2 B,2) [B,,B,]2 | [F,C]2 [F,A,]2 [F,G,]2 F,4 [F,A,]2 | %13
w: all white, A- wake * ye,|wake, A- wake from thy|
 [B,,B,]2 [B,,A,]2 [B,,G,]2 [B,,F,]2 [B,,F,]2 F,2 | G,2 ^F,2 =G,2 A,2 ^G,2 A,2 | %15
w: ing! * * * * *||
 B,2 [A,C]2 [_A,B,]2 [G,B,]4 [_G,^C]2 | [F,D]4 [F,D]2 [F,C]2 [F,C]2 [F,C]2 | (A,4 F,2) [B,,F,]4 |] %18
w: |||
V:4
 x2 | x12 | B,,6 x6 | x12 | [B,,B,]6- x6 | x12 | x12 | x12 | F,6- x4 || x2 | x12 | x6 B,,4 x2 | %12
w: ||~||~||||vest|||a-|
 x6 F,4 x2 | x10 F,2 | ^G,2 ^F,2 ^G,2 A,2 G,2 A,2 | B,2 x10 | x12 | F,6 x4 |] %18
w: sleep-||||||

